src/assets/icons/realtime-dashboard/response-time-icon.svg

<?xml version="1.0" encoding="UTF-8"?>
<svg width="26px" height="26px" viewBox="0 0 26 26" version="1.1" xmlns="http://www.w3.org/2000/svg" xmlns:xlink="http://www.w3.org/1999/xlink">
    <!-- Generator: Sketch 63.1 (92452) - https://sketch.com -->
    <title>Response Time@2x</title>
    <desc>Created with Sketch.</desc>
    <g id="Page-1" stroke="none" stroke-width="1" fill="none" fill-rule="evenodd">
        <g id="11" transform="translate(-772.000000, -189.000000)" fill-rule="nonzero">
            <g id="Response-Time" transform="translate(772.000000, 189.000000)">
                <circle id="Oval" fill-opacity="0.697716346" fill="#7AB1F6" cx="14.3439364" cy="11.6560636" r="11.6560636"></circle>
                <g id="Group" transform="translate(13.852883, 4.031809)" fill="#6C6766">
                    <path d="M0.479593926,0.022813705 C0.232967303,0.022813705 0.0329847299,0.223614957 0.0329847299,0.47136468 L0.0329847299,5.40517135 C0.0329847299,5.65287027 0.232916712,5.85372233 0.479593926,5.85372233 C0.726271139,5.85372233 0.926203122,5.65292108 0.926203122,5.40517135 L0.926203122,0.47131387 C0.926152532,0.223614957 0.726220549,0.022813705 0.479593926,0.022813705 Z" id="Path"></path>
                    <path d="M4.5913024,11.1431992 L2.3762159,8.91848193 C2.20097187,8.74852236 1.92242291,8.75091044 1.7501637,8.92396941 C1.57790449,9.09697757 1.57547616,9.37673762 1.74469997,9.55274357 L3.95978647,11.7774609 C4.1350305,11.9474204 4.41357946,11.9450324 4.58583867,11.7719734 C4.75814847,11.5989144 4.76057679,11.3192052 4.5913024,11.1431992 Z" id="Path"></path>
                </g>
                <path d="M4.5422937,11.9803181 L5.5736284,13.5254877 C5.77900131,13.8333534 5.71189826,14.2474812 5.4198146,14.4747359 L4.15125717,15.4612165 C3.87613976,15.6730805 3.79704859,16.0541411 3.96518718,16.357994 C4.33783513,17.0265516 4.68940227,17.8170669 6.43728168,19.5644496 C8.1851611,21.3118323 8.97531089,21.6638384 9.64390309,22.0364163 C9.94777169,22.2044954 10.328852,22.1254591 10.5407269,21.8503559 L11.5272585,20.581864 C11.754525,20.2898463 12.1686742,20.2226959 12.4765558,20.4280582 L14.0706722,21.4907306 L15.8643199,22.6865863 C16.1779923,22.8955042 16.2721703,23.3140511 16.0782267,23.6371551 L15.2262568,25.0536114 C15.000565,25.4364498 14.6362478,25.7179023 14.2087897,25.8396568 C12.7962731,26.2270667 9.67976588,26.3055443 4.68711639,21.3108672 C-0.305533094,16.3161901 -0.227051484,13.203552 0.160378441,11.7911084 C0.282139229,11.3636724 0.563555485,10.9994249 0.946464464,10.773694 L2.36299402,9.92176807 C2.68616554,9.72783455 3.10468332,9.82200761 3.31361203,10.1356638 L4.5422937,11.9803181 Z" id="Path" fill="#484B7F"></path>
                <circle id="Oval" fill="#6C6766" cx="14.3439364" cy="11.6560636" r="2.24850895"></circle>
            </g>
        </g>
    </g>
</svg>

<?xml version="1.0" encoding="UTF-8"?>
<svg version="1.1" viewBox="0 0 26 26" xmlns="http://www.w3.org/2000/svg">
<title>Response Time@2x</title>
<desc>Created with Sketch.</desc>
<g fill="none" fill-rule="evenodd">
<g transform="translate(-772 -189)" fill-rule="nonzero">
<g transform="translate(772 189)">
<circle id="b" cx="14.344" cy="11.656" r="11.656" fill="#7AB1F6" fill-opacity=".69772"/>
<g transform="translate(13.853 4.0318)" fill="#6C6766">
<path id="Path" d="m0.47959 0.022814c-0.24663 0-0.44661 0.2008-0.44661 0.44855v4.9338c0 0.2477 0.19993 0.44855 0.44661 0.44855 0.24668 0 0.44661-0.2008 0.44661-0.44855v-4.9339c-5.059e-5 -0.2477-0.19998-0.4485-0.44661-0.4485z"/>
<path id="a" d="m4.5913 11.143-2.2151-2.2247c-0.17524-0.16996-0.45379-0.16757-0.62605 0.0054875-0.17226 0.17301-0.17469 0.45277-0.0054637 0.62877l2.2151 2.2247c0.17524 0.16996 0.45379 0.16757 0.62605-0.0054875 0.17231-0.17306 0.17474-0.45277 0.0054637-0.62877z"/>
</g>
<path d="m4.5423 11.98 1.0313 1.5452c0.20537 0.30787 0.13827 0.72199-0.15381 0.94925l-1.2686 0.98648c-0.27512 0.21186-0.35421 0.59292-0.18607 0.89678 0.37265 0.66856 0.72422 1.4591 2.4721 3.2065 1.7479 1.7474 2.538 2.0994 3.2066 2.472 0.30387 0.16808 0.68495 0.089043 0.89682-0.18606l0.98653-1.2685c0.22727-0.29202 0.64142-0.35917 0.9493-0.15381l1.5941 1.0627 1.7936 1.1959c0.31367 0.20892 0.40785 0.62746 0.21391 0.95057l-0.85197 1.4165c-0.22569 0.38284-0.59001 0.66429-1.0175 0.78605-1.4125 0.38741-4.529 0.46589-9.5217-4.5288-4.9926-4.9947-4.9142-8.1073-4.5267-9.5198 0.12176-0.42744 0.40318-0.79168 0.78609-1.0174l1.4165-0.85193c0.32317-0.19393 0.74169-0.09976 0.95062 0.2139l1.2287 1.8447z" fill="#484B7F"/>
<circle cx="14.344" cy="11.656" r="2.2485" fill="#6C6766"/>
</g>
</g>
</g>
</svg>
